symbols/placeholder_rectangle.svg

<svg xmlns="http://www.w3.org/2000/svg" width="48" height="48" viewBox="0 0 100 100"><title>placeholder-rectangle</title><g class="symbol placeholder simple"><path fill="none" d="M0 0h100v100H0z"/><path class="inner-white" opacity=".35" fill="#fff" d="M13 25h74v50H13z"/><path class="outer" d="M87 68.5a1.5 1.5 0 0 0-1.5 1.5v3.5H82a1.5 1.5 0 0 0 0 3h5a1.5 1.5 0 0 0 1.5-1.5v-5a1.5 1.5 0 0 0-1.5-1.5zm-32.43 5h-9.14a1.5 1.5 0 0 0 0 3h9.14a1.5 1.5 0 0 0 0-3zm18.29 0h-9.15a1.5 1.5 0 0 0 0 3h9.15a1.5 1.5 0 1 0 0-3zm-36.57 0h-9.15a1.5 1.5 0 0 0 0 3h9.15a1.5 1.5 0 0 0 0-3zM18 73.5h-3.5V70a1.5 1.5 0 0 0-3 0v5a1.5 1.5 0 0 0 1.5 1.5h5a1.5 1.5 0 0 0 0-3zm-5-10a1.5 1.5 0 0 0 1.5-1.5v-8a1.5 1.5 0 0 0-3 0v8a1.5 1.5 0 0 0 1.5 1.5zm0-16a1.5 1.5 0 0 0 1.5-1.5v-8a1.5 1.5 0 0 0-3 0v8a1.5 1.5 0 0 0 1.5 1.5zm5-24h-5a1.5 1.5 0 0 0-1.5 1.5v5a1.5 1.5 0 0 0 3 0v-3.5H18a1.5 1.5 0 0 0 0-3zm36.57 0h-9.14a1.5 1.5 0 0 0 0 3h9.14a1.5 1.5 0 0 0 0-3zm-27.43 3h9.15a1.5 1.5 0 0 0 0-3h-9.15a1.5 1.5 0 0 0 0 3zm36.57 0h9.15a1.5 1.5 0 0 0 0-3h-9.15a1.5 1.5 0 0 0 0 3zm23.29-3h-5a1.5 1.5 0 0 0 0 3h3.5V30a1.5 1.5 0 0 0 3 0v-5a1.5 1.5 0 0 0-1.5-1.5zm0 29a1.5 1.5 0 0 0-1.5 1.5v8a1.5 1.5 0 0 0 3 0v-8a1.5 1.5 0 0 0-1.5-1.5zm0-16a1.5 1.5 0 0 0-1.5 1.5v8a1.5 1.5 0 0 0 3 0v-8a1.5 1.5 0 0 0-1.5-1.5z" fill="#282828"/><path class="edging" opacity=".65" d="M87 23.5a1.5 1.5 0 0 1 1.5 1.5v5a1.5 1.5 0 0 1-3 0v-3.5H82a1.5 1.5 0 0 1 0-3h5m-14.14 0a1.5 1.5 0 0 1 0 3h-9.15a1.5 1.5 0 0 1 0-3h9.15m-18.29 0a1.5 1.5 0 0 1 0 3h-9.14a1.5 1.5 0 0 1 0-3h9.14m-18.28 0a1.5 1.5 0 0 1 0 3h-9.15a1.5 1.5 0 0 1 0-3h9.15M18 23.5a1.5 1.5 0 0 1 0 3h-3.5V30a1.5 1.5 0 0 1-3 0v-5a1.5 1.5 0 0 1 1.5-1.5h5m69 13a1.5 1.5 0 0 1 1.5 1.5v8a1.5 1.5 0 0 1-3 0v-8a1.5 1.5 0 0 1 1.5-1.5m-74 0a1.5 1.5 0 0 1 1.5 1.5v8a1.5 1.5 0 0 1-3 0v-8a1.5 1.5 0 0 1 1.5-1.5m74 16a1.5 1.5 0 0 1 1.5 1.5v8a1.5 1.5 0 0 1-3 0v-8a1.5 1.5 0 0 1 1.5-1.5m-74 0a1.5 1.5 0 0 1 1.5 1.5v8a1.5 1.5 0 0 1-3 0v-8a1.5 1.5 0 0 1 1.5-1.5m74 16a1.5 1.5 0 0 1 1.5 1.5v5a1.5 1.5 0 0 1-1.5 1.5h-5a1.5 1.5 0 0 1 0-3h3.5V70a1.5 1.5 0 0 1 1.5-1.5m-74 0a1.5 1.5 0 0 1 1.5 1.5v3.5H18a1.5 1.5 0 0 1 0 3h-5a1.5 1.5 0 0 1-1.5-1.5v-5a1.5 1.5 0 0 1 1.5-1.5m59.86 5a1.5 1.5 0 1 1 0 3h-9.15a1.5 1.5 0 0 1 0-3h9.15m-18.29 0a1.5 1.5 0 0 1 0 3h-9.14a1.5 1.5 0 0 1 0-3h9.14m-18.28 0a1.5 1.5 0 0 1 0 3h-9.15a1.5 1.5 0 0 1 0-3h9.15M87 21.5h-5a3.5 3.5 0 0 0 0 7h1.5V30a3.5 3.5 0 0 0 7 0v-5a3.5 3.5 0 0 0-3.5-3.5zm-14.14 0h-9.15a3.5 3.5 0 0 0 0 7h9.15a3.5 3.5 0 0 0 0-7zm-18.29 0h-9.14a3.5 3.5 0 0 0 0 7h9.14a3.5 3.5 0 0 0 0-7zm-18.28 0h-9.15a3.5 3.5 0 0 0 0 7h9.15a3.5 3.5 0 0 0 0-7zM18 21.5h-5A3.5 3.5 0 0 0 9.5 25v5a3.5 3.5 0 0 0 7 0v-1.5H18a3.5 3.5 0 0 0 0-7zm69 13a3.5 3.5 0 0 0-3.5 3.5v8a3.5 3.5 0 0 0 7 0v-8a3.5 3.5 0 0 0-3.5-3.5zm-74 0A3.5 3.5 0 0 0 9.5 38v8a3.5 3.5 0 0 0 7 0v-8a3.5 3.5 0 0 0-3.5-3.5zm74 16a3.5 3.5 0 0 0-3.5 3.5v8a3.5 3.5 0 0 0 7 0v-8a3.5 3.5 0 0 0-3.5-3.5zm-74 0A3.5 3.5 0 0 0 9.5 54v8a3.5 3.5 0 0 0 7 0v-8a3.5 3.5 0 0 0-3.5-3.5zm74 16a3.5 3.5 0 0 0-3.5 3.5v1.5H82a3.5 3.5 0 0 0 0 7h5a3.5 3.5 0 0 0 3.5-3.5v-5a3.5 3.5 0 0 0-3.5-3.5zm-74 0A3.5 3.5 0 0 0 9.5 70v5a3.5 3.5 0 0 0 3.5 3.5h5a3.5 3.5 0 0 0 0-7h-1.5V70a3.5 3.5 0 0 0-3.5-3.5zm59.86 5h-9.15a3.5 3.5 0 0 0 0 7h9.15a3.5 3.5 0 1 0 0-7zm-18.29 0h-9.14a3.5 3.5 0 0 0 0 7h9.14a3.5 3.5 0 0 0 0-7zm-18.28 0h-9.15a3.5 3.5 0 0 0 0 7h9.15a3.5 3.5 0 0 0 0-7z" fill="#fff"/></g></svg>

<svg xmlns="http://www.w3.org/2000/svg" width="48" height="48" viewBox="0 0 100 100">
  <title>placeholder-rectangle</title>
		<g id="placeholder-rectangle" class="symbol placeholder simple">

			<rect id="bounding" width="100" height="100" fill="none"/>

			<rect class="inner-white" opacity="0.35" x="13" y="25" width="74" height="50" fill="#fff"/>

			<path class="outer" d="M87,68.5A1.5,1.5,0,0,0,85.5,70v3.5H82a1.5,1.5,0,0,0,0,3h5A1.5,1.5,0,0,0,88.5,75V70A1.5,1.5,0,0,0,87,68.5Zm-32.43,5H45.43a1.5,1.5,0,0,0,0,3h9.14a1.5,1.5,0,0,0,0-3Zm18.29,0H63.71a1.5,1.5,0,0,0,0,3h9.15a1.5,1.5,0,1,0,0-3Zm-36.57,0H27.14a1.5,1.5,0,0,0,0,3h9.15a1.5,1.5,0,0,0,0-3ZM18,73.5H14.5V70a1.5,1.5,0,0,0-3,0v5A1.5,1.5,0,0,0,13,76.5h5a1.5,1.5,0,0,0,0-3Zm-5-10A1.5,1.5,0,0,0,14.5,62V54a1.5,1.5,0,0,0-3,0v8A1.5,1.5,0,0,0,13,63.5Zm0-16A1.5,1.5,0,0,0,14.5,46V38a1.5,1.5,0,0,0-3,0v8A1.5,1.5,0,0,0,13,47.5Zm5-24H13A1.5,1.5,0,0,0,11.5,25v5a1.5,1.5,0,0,0,3,0V26.5H18a1.5,1.5,0,0,0,0-3Zm36.57,0H45.43a1.5,1.5,0,0,0,0,3h9.14a1.5,1.5,0,0,0,0-3Zm-27.43,3h9.15a1.5,1.5,0,0,0,0-3H27.14a1.5,1.5,0,0,0,0,3Zm36.57,0h9.15a1.5,1.5,0,0,0,0-3H63.71a1.5,1.5,0,0,0,0,3ZM87,23.5H82a1.5,1.5,0,0,0,0,3h3.5V30a1.5,1.5,0,0,0,3,0V25A1.5,1.5,0,0,0,87,23.5Zm0,29A1.5,1.5,0,0,0,85.5,54v8a1.5,1.5,0,0,0,3,0V54A1.5,1.5,0,0,0,87,52.5Zm0-16A1.5,1.5,0,0,0,85.5,38v8a1.5,1.5,0,0,0,3,0V38A1.5,1.5,0,0,0,87,36.5Z" fill="#282828"/>

			<path class="edging" opacity="0.65" d="M87,23.5A1.5,1.5,0,0,1,88.5,25v5a1.5,1.5,0,0,1-3,0V26.5H82a1.5,1.5,0,0,1,0-3h5m-14.14,0a1.5,1.5,0,0,1,0,3H63.71a1.5,1.5,0,0,1,0-3h9.15m-18.29,0a1.5,1.5,0,0,1,0,3H45.43a1.5,1.5,0,0,1,0-3h9.14m-18.28,0a1.5,1.5,0,0,1,0,3H27.14a1.5,1.5,0,0,1,0-3h9.15M18,23.5a1.5,1.5,0,0,1,0,3H14.5V30a1.5,1.5,0,0,1-3,0V25A1.5,1.5,0,0,1,13,23.5h5m69,13A1.5,1.5,0,0,1,88.5,38v8a1.5,1.5,0,0,1-3,0V38A1.5,1.5,0,0,1,87,36.5m-74,0A1.5,1.5,0,0,1,14.5,38v8a1.5,1.5,0,0,1-3,0V38A1.5,1.5,0,0,1,13,36.5m74,16A1.5,1.5,0,0,1,88.5,54v8a1.5,1.5,0,0,1-3,0V54A1.5,1.5,0,0,1,87,52.5m-74,0A1.5,1.5,0,0,1,14.5,54v8a1.5,1.5,0,0,1-3,0V54A1.5,1.5,0,0,1,13,52.5m74,16A1.5,1.5,0,0,1,88.5,70v5A1.5,1.5,0,0,1,87,76.5H82a1.5,1.5,0,0,1,0-3h3.5V70A1.5,1.5,0,0,1,87,68.5m-74,0A1.5,1.5,0,0,1,14.5,70v3.5H18a1.5,1.5,0,0,1,0,3H13A1.5,1.5,0,0,1,11.5,75V70A1.5,1.5,0,0,1,13,68.5m59.86,5a1.5,1.5,0,1,1,0,3H63.71a1.5,1.5,0,0,1,0-3h9.15m-18.29,0a1.5,1.5,0,0,1,0,3H45.43a1.5,1.5,0,0,1,0-3h9.14m-18.28,0a1.5,1.5,0,0,1,0,3H27.14a1.5,1.5,0,0,1,0-3h9.15M87,21.5H82a3.5,3.5,0,0,0,0,7h1.5V30a3.5,3.5,0,0,0,7,0V25A3.5,3.5,0,0,0,87,21.5Zm-14.14,0H63.71a3.5,3.5,0,0,0,0,7h9.15a3.5,3.5,0,0,0,0-7Zm-18.29,0H45.43a3.5,3.5,0,0,0,0,7h9.14a3.5,3.5,0,0,0,0-7Zm-18.28,0H27.14a3.5,3.5,0,0,0,0,7h9.15a3.5,3.5,0,0,0,0-7ZM18,21.5H13A3.5,3.5,0,0,0,9.5,25v5a3.5,3.5,0,0,0,7,0V28.5H18a3.5,3.5,0,0,0,0-7Zm69,13A3.5,3.5,0,0,0,83.5,38v8a3.5,3.5,0,0,0,7,0V38A3.5,3.5,0,0,0,87,34.5Zm-74,0A3.5,3.5,0,0,0,9.5,38v8a3.5,3.5,0,0,0,7,0V38A3.5,3.5,0,0,0,13,34.5Zm74,16A3.5,3.5,0,0,0,83.5,54v8a3.5,3.5,0,0,0,7,0V54A3.5,3.5,0,0,0,87,50.5Zm-74,0A3.5,3.5,0,0,0,9.5,54v8a3.5,3.5,0,0,0,7,0V54A3.5,3.5,0,0,0,13,50.5Zm74,16A3.5,3.5,0,0,0,83.5,70v1.5H82a3.5,3.5,0,0,0,0,7h5A3.5,3.5,0,0,0,90.5,75V70A3.5,3.5,0,0,0,87,66.5Zm-74,0A3.5,3.5,0,0,0,9.5,70v5A3.5,3.5,0,0,0,13,78.5h5a3.5,3.5,0,0,0,0-7H16.5V70A3.5,3.5,0,0,0,13,66.5Zm59.86,5H63.71a3.5,3.5,0,0,0,0,7h9.15a3.5,3.5,0,1,0,0-7Zm-18.29,0H45.43a3.5,3.5,0,0,0,0,7h9.14a3.5,3.5,0,0,0,0-7Zm-18.28,0H27.14a3.5,3.5,0,0,0,0,7h9.15a3.5,3.5,0,0,0,0-7Z" fill="#fff"/>
		</g>
</svg>
